brandFactory_export/2.Regular/Recarga Online_2Regular.svg

<?xml version="1.0" encoding="UTF-8"?>
<svg width="24px" height="24px" viewBox="0 0 24 24" version="1.1" xmlns="http://www.w3.org/2000/svg" xmlns:xlink="http://www.w3.org/1999/xlink">
    <title>2.Regular/Recarga Online_2Regular</title>
    <g id="Symbols" stroke="none" stroke-width="1" fill="none" fill-rule="evenodd">
        <g id="2.Regular/Recarga-Online_2Regular" fill="#5CB615" fill-rule="nonzero">
            <path d="M22.9176471,18.7445378 C23.287395,18.7445378 23.589916,19.0470588 23.589916,19.4168067 C23.589916,19.7865546 23.287395,20.0890756 22.9176471,20.0890756 L0.712605042,20.0890756 C0.342857143,20.0890756 0.0403361342,19.7865546 0.0403361342,19.4168067 C0.0403361342,19.0470588 0.342857143,18.7445378 0.712605042,18.7445378 L22.9176471,18.7445378 Z M19.6806723,3.01008403 C20.9983193,3.01008403 22.010084,3.40336134 22.6857143,4.17647059 C23.3142857,4.89579832 23.6302521,5.93781513 23.6302521,7.27563025 L23.6302521,13.2016807 C23.6302521,14.5394958 23.3109244,15.5815126 22.6857143,16.3008403 C22.010084,17.0739496 20.9983193,17.4672269 19.6806723,17.4672269 L3.94957983,17.4672269 C2.63193277,17.4672269 1.62016807,17.0739496 0.944537815,16.3042017 C0.319327731,15.5815126 -2.80746093e-10,14.5394958 -2.80746093e-10,13.2016807 L-2.80746093e-10,7.27563025 C-2.80746093e-10,5.93781513 0.319327731,4.89579832 0.944537815,4.17647059 C1.62016807,3.40336134 2.62857143,3.01008403 3.94957983,3.01008403 L19.6806723,3.01008403 Z M19.6806723,4.35462185 L3.94957983,4.35798319 C3.02184874,4.35798319 2.37310924,4.58991597 1.95966387,5.06386555 C1.55294118,5.52773109 1.34453781,6.27394958 1.34453781,7.27563025 L1.34453781,13.2016807 C1.34453781,14.2033613 1.55294118,14.9495798 1.95966387,15.4168067 C2.37310924,15.8907563 3.02521008,16.1226891 3.94957983,16.1226891 L19.6806723,16.1226891 C20.605042,16.1226891 21.2571429,15.8907563 21.6705882,15.4168067 C22.0773109,14.9495798 22.2857143,14.2033613 22.2857143,13.2016807 L22.2857143,7.27563025 C22.2857143,6.27394958 22.0773109,5.52773109 21.6705882,5.0605042 C21.2571429,4.58655462 20.605042,4.35462185 19.6806723,4.35462185 Z M15.1226891,6.79831933 C15.297479,6.83193277 15.6268908,6.92605042 16.1781513,7.07731092 L16.4605042,7.15462185 C16.7294118,7.22857143 16.887395,7.50756303 16.8134454,7.77647059 C16.7394958,8.04537815 16.4605042,8.20336134 16.1915966,8.12941176 L15.9092437,8.05210084 L15.8703033,8.04057546 C16.1713546,8.66572187 16.3226944,9.42131092 16.3226944,10.3008403 C16.3260504,13.1109244 14.7428571,14.6571429 11.8689076,14.6571429 C11.3714286,14.6605042 10.8739496,14.6067227 10.3865546,14.4957983 C10.1142857,14.4319328 9.94957983,14.1596639 10.0134454,13.887395 C10.0773109,13.6151261 10.3495798,13.4504202 10.6218487,13.5142857 C11.0319328,13.6084034 11.4521008,13.6521008 11.8689076,13.6487395 C14.1882353,13.6487395 15.3176471,12.5529412 15.3176471,10.3008403 C15.3176471,9.49168966 15.1683832,8.82486032 14.8735971,8.31032972 L14.8638655,8.37815126 L14.8638655,8.37815126 C14.8336134,8.62016807 14.8,8.86890756 14.7563025,9.06722689 C14.7092437,9.29243697 14.507563,9.45714286 14.2689076,9.45714286 C13.989916,9.45714286 13.7647059,9.23193277 13.7647059,8.95294118 C13.7647059,8.91596639 13.7680672,8.88235294 13.7747899,8.8487395 C13.8084034,8.69411765 13.8386555,8.46554622 13.8655462,8.24369748 C13.8991597,7.99831933 13.9294118,7.74621849 13.9731092,7.5512605 C14.097479,6.9697479 14.5411765,6.68067227 15.1226891,6.79831933 Z M11.7478992,5.78319328 C12.2521008,5.77983193 12.7529412,5.83361345 13.2436975,5.94789916 C13.5159664,6.00504202 13.6907563,6.27394958 13.6336134,6.54621849 C13.5764706,6.81848739 13.307563,6.99327731 13.0352941,6.93613445 C13.0252101,6.93277311 13.0184874,6.93277311 13.0084034,6.92941176 C12.594958,6.83529412 12.1714286,6.79159664 11.7478992,6.79495798 C9.42857143,6.79495798 8.29915966,7.8907563 8.29915966,10.1428571 C8.29915966,10.9463438 8.44634114,11.6094946 8.73704058,12.1225403 L8.74621849,12.0621849 L8.74621849,12.0621849 C8.77647059,11.8201681 8.81008403,11.5714286 8.85378151,11.3731092 C8.91092437,11.1008403 9.17647059,10.9260504 9.4487395,10.9798319 C9.7210084,11.0369748 9.89579832,11.302521 9.84201681,11.5747899 C9.84201681,11.5781513 9.84201681,11.5815126 9.83865546,11.5815126 C9.80504202,11.7361345 9.77478992,11.9647059 9.74789916,12.1865546 C9.71428571,12.4319328 9.68403361,12.6840336 9.64033613,12.8789916 C9.52941176,13.3865546 9.19327731,13.6689076 8.73613445,13.6689076 C8.65210084,13.6689076 8.57142857,13.6588235 8.48739496,13.6420168 C8.31260504,13.6084034 7.98319328,13.5142857 7.43529412,13.3630252 L7.15294118,13.2857143 C6.88403361,13.2117647 6.72605042,12.9327731 6.8,12.6638655 C6.87394958,12.394958 7.15294118,12.2369748 7.42184874,12.3109244 L7.70420168,12.3882353 L7.74362716,12.400764 C7.44225598,11.7754228 7.2907563,11.0194958 7.2907563,10.1394958 C7.2907563,7.32941176 8.87394958,5.78319328 11.7478992,5.78319328 Z" id="Recarga-Online_2Regular"></path>
        </g>
    </g>
</svg>

<svg width="24" height="24" viewBox="0 0 24 24" xmlns="http://www.w3.org/2000/svg"><path d="M22.918 18.745c.37 0 .672.302.672.672 0 .37-.303.672-.672.672H.713a.674.674 0 01-.673-.672c0-.37.303-.672.673-.672h22.205zM19.68 3.01c1.317 0 2.33.393 3.005 1.166.628.72.944 1.762.944 3.1v5.926c0 1.337-.32 2.38-.944 3.099-.676.773-1.688 1.166-3.005 1.166H3.95c-1.318 0-2.33-.393-3.005-1.163C.319 15.582 0 14.54 0 13.202V7.276c0-1.338.32-2.38.945-3.1C1.62 3.403 2.629 3.01 3.95 3.01h15.73zm0 1.345L3.95 4.358c-.928 0-1.577.232-1.99.706-.407.464-.615 1.21-.615 2.212v5.926c0 1.001.208 1.748.615 2.215.413.474 1.065.706 1.99.706h15.73c.925 0 1.577-.232 1.99-.706.407-.467.616-1.214.616-2.215V7.276c0-1.002-.209-1.748-.615-2.215-.414-.474-1.066-.706-1.99-.706zm-4.558 2.443c.174.034.504.128 1.055.28l.283.077a.506.506 0 01-.27.974l-.282-.077-.039-.011c.301.625.453 1.38.453 2.26.003 2.81-1.58 4.356-4.454 4.356a6.483 6.483 0 01-1.482-.161.503.503 0 11.235-.982c.41.094.83.138 1.247.135 2.32 0 3.449-1.096 3.449-3.348 0-.81-.15-1.476-.444-1.99l-.01.067c-.03.242-.064.49-.108.69a.504.504 0 01-.982-.218c.034-.156.065-.384.092-.606.033-.246.063-.498.107-.693.124-.581.568-.87 1.15-.753zm-3.375-1.015a6.397 6.397 0 011.496.165.506.506 0 01-.209.988c-.01-.003-.017-.003-.027-.007a5.484 5.484 0 00-1.26-.134c-2.32 0-3.449 1.096-3.449 3.348 0 .803.147 1.466.438 1.98l.01-.06c.03-.243.063-.492.107-.69a.507.507 0 01.595-.393.507.507 0 01.393.595c0 .003 0 .007-.003.007a7.462 7.462 0 00-.091.605c-.034.245-.064.497-.108.692-.11.508-.447.79-.904.79-.084 0-.165-.01-.249-.027-.174-.034-.504-.128-1.052-.279l-.282-.077a.506.506 0 01.269-.975l.282.077.04.013c-.302-.626-.453-1.382-.453-2.262 0-2.81 1.583-4.356 4.457-4.356z" fill="#5CB615" fill-rule="nonzero"/></svg>
